assets/Closed mailbox with raised flag/Flat/closed_mailbox_with_raised_flag_flat.svg

<svg width="32" height="32" viewBox="0 0 32 32" fill="none" xmlns="http://www.w3.org/2000/svg">
<path d="M16.81 30.04V23.4L14.5 22L11.83 23.4V30.04H16.81Z" fill="#7D4533"/>
<path d="M21.65 7H7.84L11 23.61H15.81H21.65H25.99C26.8184 23.61 27.49 22.9384 27.49 22.11V12.84C27.48 9.61 24.87 7 21.65 7Z" fill="#5092FF"/>
<path d="M7.84 7C4.61 7 2 9.61 2 12.84V22.11C2 22.9384 2.67157 23.61 3.5 23.61H12.17C12.9984 23.61 13.67 22.9384 13.67 22.11V12.84C13.67 9.61 11.06 7 7.84 7Z" fill="#3F5FFF"/>
<path d="M9.27 20H4.98C4.44 20 4 20.44 4 20.98C4 21.52 4.44 21.96 4.98 21.96H9.27C9.81 21.96 10.25 21.52 10.25 20.98C10.26 20.44 9.82 20 9.27 20Z" fill="#1345B7"/>
<path d="M24.1315 2L18.8685 2C18.3929 2 18 2.36893 18 2.81553L18 5.18447C18 5.63107 18.3929 6 18.8685 6L24.1315 6C24.6071 6 25 5.63107 25 5.18447L25 2.81553C25 2.36893 24.6071 2 24.1315 2Z" fill="#F92F60"/>
<path d="M17.21 2.58C17.21 1.91 17.75 1.37 18.42 1.37C19.09 1.37 19.63 1.91 19.63 2.58L19.63 11.4838C20.3533 11.9022 20.84 12.6843 20.84 13.58C20.84 14.9166 19.7565 16 18.42 16C17.0835 16 16 14.9166 16 13.58C16 12.6843 16.4866 11.9022 17.21 11.4838L17.21 2.58Z" fill="#D3D3D3"/>
</svg>

<svg xmlns="http://www.w3.org/2000/svg" width="32" height="32" fill="none"><path fill="#7D4533" d="M16.81 30.04V23.4L14.5 22l-2.67 1.4v6.64h4.98Z"/><path fill="#5092FF" d="M21.65 7H7.84L11 23.61H25.99a1.5 1.5 0 0 0 1.5-1.5v-9.27C27.48 9.61 24.87 7 21.65 7Z"/><path fill="#3F5FFF" d="M7.84 7C4.61 7 2 9.61 2 12.84v9.27a1.5 1.5 0 0 0 1.5 1.5h8.67a1.5 1.5 0 0 0 1.5-1.5v-9.27C13.67 9.61 11.06 7 7.84 7Z"/><path fill="#1345B7" d="M9.27 20H4.98c-.54 0-.98.44-.98.98s.44.98.98.98h4.29c.54 0 .98-.44.98-.98a.969.969 0 0 0-.98-.98Z"/><path fill="#F92F60" d="M24.131 2H18.87c-.476 0-.869.369-.869.816v2.368c0 .447.393.816.869.816h5.262c.476 0 .869-.369.869-.816V2.816c0-.447-.393-.816-.869-.816Z"/><path fill="#D3D3D3" d="M17.21 2.58c0-.67.54-1.21 1.21-1.21.67 0 1.21.54 1.21 1.21v8.904A2.42 2.42 0 0 1 18.42 16a2.42 2.42 0 0 1-1.21-4.516V2.58Z"/></svg>
